X: 18
T: Głupia mądrości, rozumie szalony,
C: Mikołaj Gomółka
%%abc-version 2.0
%%abcx-abcm2ps-target-version 5.9.1 (29 Sep 2008)
%%abc-creator hum2abc beta
%%abcx-conversion-date 2021/10/04 07:59:09
%%abc-edited-by Marta Lawrence
%%abcx-initial-encoding-date 2020-02-04
%%humdrum-veritas 2469904691
%%humdrum-veritas-data 730560692
%%linebreak <none>
%%barnumbers 0
L: 1/4
M: C|
N: Derived from pl-wn--sd-xvi-qu-273--019_gomolka-mikolaj--glupia-madrosci-rozumie-szalony.krn
%%staves [1 2 3 4]
V: 1 clef=treble
V: 2
V: 3 clef=alto
V: 4
K: F
[V:1] A4A2B2 [|] 
[V:2] F4F3D [|] 
[V:3] C4C2D2 [|] 
[V:4] F,4F,2B,,2 [|] 
[V:1] GA2GA2c4 [|] 
[V:2] EF2EF2A3 [|] 
[V:3] C2>B,2A,2F4 [|] 
[V:4] C,4F,2F,3 [|] 
[V:1] A2c2d4 [|] 
[V:2] BcBAGF2 [|] 
[V:3] E2FEDC [|] 
[V:4] G,A,4B,A, [|] 
[V:1] B2A4 :|]  
[V:2] G2DEF4 :|]  
[V:3] B,A,B,2C4 :|]  
[V:4] G,F,G,2F,4 :|]  
[V:1] e4f3e [|] 
[V:2] G2c2A2B2 [|] 
[V:3] z2G2F2F2 [|] 
[V:4] C4D2B,2 [|] 
[V:1] dcd2e2G2 [|] 
[V:2] AGABc2E2 [|] 
[V:3] F4G2C2 [|] 
[V:4] D4C2C,2 [|] 
[V:1] F2>E2DCD2 [|] 
[V:2] D2>E2F3D [|] 
[V:3] A,2B,2A,G,A,B, [|] 
[V:4] D,2B,,2D,2D,2 [|] 
[V:1] E2F2F4 [|] 
[V:2] G2C2C4 [|] 
[V:3] C2A,2A,4 [|] 
[V:4] C,2F,2F,4 [|] 
[V:1] B4A4 [|] 
[V:2] F4F4 [|] 
[V:3] D4C4 [|] 
[V:4] B,,C,D,E,F,4 [|] 
[V:1] G2g2>f2e2 [|] 
[V:2] E2c2G3A [|] 
[V:3] C2C2E4 [|] 
[V:4] C,2C,2C4 [|] 
[V:1] d4c6 [|] 
[V:2] B2FGA2EF [|] 
[V:3] F6E4 [|] 
[V:4] B,4A,4 [|] 
[V:1] =BABc2B [|] 
[V:2] G2>F2GAGF [|] 
[V:3] DCDED2 [|] 
[V:4] G,8 [|] 
[V:1] c8 |]  
[V:2] E8 |]  
[V:3] C8 |]  
[V:4] C,8 |]  


